X: 1
T: MacLeod's Farewell
M: 4/4
L: 1/8
R: reel
K: Emaj
|:A|G2cG BGFG|(3EFE EF GBce|f2ge (3fgf ec|B2ef ecBA|
G2cG BGFG|(3EFE EF GBce|f2ge (3fgf ec|Bcef e3:|
c|~B3g fege|~B3g fege|BceB ceBA|(3GAG FE DcBA|
G2cG BGFG|(3EFE EF GBce|f2ge (3fgf ec|Bcef e3c|
~B3g fege|~B3g fege|BceB ceBc|ecBG FGEF|
G2cG BGFG|(3EFE EF GBce|f2ge (3fgf ec|Bcef e3|]
